justvector/skype.svg

<?xml version="1.0" encoding="iso-8859-1"?>
<!-- Generator: Adobe Illustrator 15.0.0, SVG Export Plug-In . SVG Version: 6.00 Build 0)  -->
<!DOCTYPE svg PUBLIC "-//W3C//DTD SVG 1.1//EN" "http://www.w3.org/Graphics/SVG/1.1/DTD/svg11.dtd">
<svg version="1.1" id="Icons" xmlns="http://www.w3.org/2000/svg" xmlns:xlink="http://www.w3.org/1999/xlink" x="0px" y="0px"
	 width="100px" height="100px" viewBox="0 0 100 100" style="enable-background:new 0 0 100 100;" xml:space="preserve">
<path id="Skype" d="M90.914,56.916c0.336-2.125,0.513-4.299,0.513-6.518c0-23.062-18.694-41.756-41.757-41.756
	c-2.213,0-4.393,0.182-6.516,0.514C39.308,6.777,34.769,5.4,29.905,5.4C15.969,5.4,4.672,16.696,4.672,30.633
	c0,4.863,1.378,9.398,3.756,13.252c-0.329,2.128-0.51,4.295-0.51,6.514c0,23.063,18.694,41.752,41.751,41.752
	c2.215,0,4.395-0.171,6.518-0.506c3.85,2.375,8.385,3.756,13.249,3.756c13.939,0,25.235-11.299,25.235-25.236
	C94.672,65.301,93.295,60.766,90.914,56.916z M69.495,69.389c-1.767,2.543-4.361,4.53-7.752,5.959
	c-3.398,1.432-7.413,2.145-12.05,2.145c-5.558,0-10.16-0.972-13.792-2.936c-2.575-1.406-4.669-3.293-6.279-5.646
	c-1.613-2.354-2.431-4.659-2.431-6.907c0-1.326,0.506-2.48,1.49-3.42c0.995-0.947,2.276-1.422,3.788-1.422
	c1.239,0,2.303,0.373,3.169,1.112c0.86,0.739,1.581,1.813,2.171,3.231c0.707,1.643,1.475,3.016,2.292,4.111
	c0.812,1.082,1.955,1.986,3.435,2.693c1.464,0.709,3.412,1.063,5.85,1.063c3.336,0,6.033-0.721,8.096-2.145
	c2.074-1.436,3.071-3.184,3.071-5.297c0-1.684-0.538-3.023-1.639-4.066c-1.111-1.056-2.547-1.861-4.328-2.422
	c-1.788-0.567-4.189-1.169-7.198-1.803c-4.04-0.881-7.419-1.908-10.155-3.086c-2.74-1.184-4.922-2.801-6.539-4.844
	c-1.621-2.063-2.429-4.627-2.429-7.664c0-2.896,0.853-5.486,2.561-7.74c1.707-2.26,4.177-3.99,7.397-5.195
	c3.209-1.205,6.987-1.807,11.315-1.807c3.461,0,6.455,0.4,8.989,1.197c2.528,0.803,4.634,1.862,6.318,3.191
	c1.675,1.326,2.906,2.725,3.686,4.193c0.779,1.472,1.172,2.91,1.172,4.313c0,1.305-0.506,2.488-1.491,3.525
	c-0.986,1.039-2.246,1.568-3.718,1.563c-1.327,0-2.368-0.306-3.09-0.954c-0.703-0.627-1.441-1.625-2.24-3.016
	c-1.009-1.941-2.218-3.453-3.625-4.535c-1.369-1.061-3.628-1.614-6.771-1.607c-2.908,0-5.235,0.594-6.991,1.756
	c-1.767,1.181-2.612,2.551-2.616,4.156c0.003,1.006,0.292,1.854,0.874,2.579c0.591,0.732,1.413,1.366,2.47,1.901
	c1.057,0.543,2.132,0.963,3.213,1.265c1.093,0.31,2.907,0.758,5.428,1.351c3.162,0.682,6.031,1.443,8.608,2.273
	c2.572,0.834,4.767,1.84,6.581,3.038c1.828,1.195,3.257,2.718,4.277,4.558c1.026,1.843,1.538,4.094,1.538,6.742
	C72.154,63.982,71.265,66.85,69.495,69.389z"/>
</svg>

<?xml version="1.0" encoding="UTF-8" standalone="no"?>
<!DOCTYPE svg PUBLIC "-//W3C//DTD SVG 1.1//EN" "http://www.w3.org/Graphics/SVG/1.1/DTD/svg11.dtd">
<svg width="100%" height="100%" viewBox="0 0 100 100" version="1.1" xmlns="http://www.w3.org/2000/svg" xmlns:xlink="http://www.w3.org/1999/xlink" xml:space="preserve" xmlns:serif="http://www.serif.com/" style="fill-rule:evenodd;clip-rule:evenodd;stroke-linejoin:round;stroke-miterlimit:2;">
    <path id="Skype" d="M90.914,56.916C91.25,54.791 91.427,52.617 91.427,50.398C91.427,27.336 72.733,8.642 49.67,8.642C47.457,8.642 45.277,8.824 43.154,9.156C39.308,6.777 34.769,5.4 29.905,5.4C15.969,5.4 4.672,16.696 4.672,30.633C4.672,35.496 6.05,40.031 8.428,43.885C8.099,46.013 7.918,48.18 7.918,50.399C7.918,73.462 26.612,92.151 49.669,92.151C51.884,92.151 54.064,91.98 56.187,91.645C60.037,94.02 64.572,95.401 69.436,95.401C83.375,95.401 94.671,84.102 94.671,70.165C94.672,65.301 93.295,60.766 90.914,56.916ZM69.495,69.389C67.728,71.932 65.134,73.919 61.743,75.348C58.345,76.78 54.33,77.493 49.693,77.493C44.135,77.493 39.533,76.521 35.901,74.557C33.326,73.151 31.232,71.264 29.622,68.911C28.009,66.557 27.191,64.252 27.191,62.004C27.191,60.678 27.697,59.524 28.681,58.584C29.676,57.637 30.957,57.162 32.469,57.162C33.708,57.162 34.772,57.535 35.638,58.274C36.498,59.013 37.219,60.087 37.809,61.505C38.516,63.148 39.284,64.521 40.101,65.616C40.913,66.698 42.056,67.602 43.536,68.309C45,69.018 46.948,69.372 49.386,69.372C52.722,69.372 55.419,68.651 57.482,67.227C59.556,65.791 60.553,64.043 60.553,61.93C60.553,60.246 60.015,58.907 58.914,57.864C57.803,56.808 56.367,56.003 54.586,55.442C52.798,54.875 50.397,54.273 47.388,53.639C43.348,52.758 39.969,51.731 37.233,50.553C34.493,49.369 32.311,47.752 30.694,45.709C29.073,43.646 28.265,41.082 28.265,38.045C28.265,35.149 29.118,32.559 30.826,30.305C32.533,28.045 35.003,26.315 38.223,25.11C41.432,23.905 45.21,23.303 49.538,23.303C52.999,23.303 55.993,23.703 58.527,24.5C61.055,25.303 63.161,26.362 64.845,27.691C66.52,29.017 67.751,30.416 68.531,31.884C69.31,33.356 69.703,34.794 69.703,36.197C69.703,37.502 69.197,38.685 68.212,39.722C67.226,40.761 65.966,41.29 64.494,41.285C63.167,41.285 62.126,40.979 61.404,40.331C60.701,39.704 59.963,38.706 59.164,37.315C58.155,35.374 56.946,33.862 55.539,32.78C54.17,31.719 51.911,31.166 48.768,31.173C45.86,31.173 43.533,31.767 41.777,32.929C40.01,34.11 39.165,35.48 39.161,37.085C39.164,38.091 39.453,38.939 40.035,39.664C40.626,40.396 41.448,41.03 42.505,41.565C43.562,42.108 44.637,42.528 45.718,42.83C46.811,43.14 48.625,43.588 51.146,44.181C54.308,44.863 57.177,45.624 59.754,46.454C62.326,47.288 64.521,48.294 66.335,49.492C68.163,50.687 69.592,52.21 70.612,54.05C71.638,55.893 72.15,58.144 72.15,60.792C72.154,63.982 71.265,66.85 69.495,69.389Z" style="fill:rgb(200,255,250);fill-rule:nonzero;"/>
</svg>
